www/assets/icons/text_snippet.svg

<svg xmlns="http://www.w3.org/2000/svg" width="24" height="24" viewBox="0 0 24 24" fill='currentColor'><path d="m20.41 8.41-4.83-4.83c-.37-.37-.88-.58-1.41-.58H5c-1.1 0-2 .9-2 2v14c0 1.1.9 2 2 2h14c1.1 0 2-.9 2-2V9.83c0-.53-.21-1.04-.59-1.42M7 7h7v2H7zm10 10H7v-2h10zm0-4H7v-2h10z"/></svg>

<svg width="24" height="24" viewBox="0 0 24 24" xmlns="http://www.w3.org/2000/svg" fill='currentColor'><path d="M20.41 8.41L15.58 3.58C15.21 3.21 14.7 3 14.17 3H5C3.9 3 3 3.9 3 5V19C3 20.1 3.9 21 5 21H19C20.1 21 21 20.1 21 19V9.83C21 9.3 20.79 8.79 20.41 8.41ZM7 7H14V9H7V7ZM17 17H7V15H17V17ZM17 13H7V11H17V13Z"/></svg>
